client/public/assets/icons/utility/richtextindent.svg

<?xml version="1.0"?><svg xmlns="http://www.w3.org/2000/svg" width="52" height="52" viewBox="0 0 52 52"><path fill="#fff" d="m52 11.5c0-0.8-0.7-1.5-1.5-1.5h-17c-0.8 0-1.5 0.7-1.5 1.5v3c0 0.8 0.7 1.5 1.5 1.5h17c0.8 0 1.5-0.7 1.5-1.5v-3z m-4 24c0-0.8-0.7-1.5-1.5-1.5h-13c-0.8 0-1.5 0.7-1.5 1.5v3c0 0.8 0.7 1.5 1.5 1.5h13c0.8 0 1.5-0.7 1.5-1.5v-3z m4-12c0-0.8-0.7-1.5-1.5-1.5h-17c-0.8 0-1.5 0.7-1.5 1.5v3c0 0.8 0.7 1.5 1.5 1.5h17c0.8 0 1.5-0.7 1.5-1.5v-3z m-24-18c0-0.8-0.7-1.5-1.5-1.5h-3c-0.8 0-1.5 0.7-1.5 1.5v41c0 0.8 0.7 1.5 1.5 1.5h3c0.8 0 1.5-0.7 1.5-1.5v-41z m-18.6 9.8c-0.6-0.6-1.4-0.1-1.4 0.9v5.8h-6.5c-0.8 0-1.5 0.7-1.5 1.5v3c0 0.8 0.7 1.5 1.5 1.5h6.5v5.9c0 1 0.9 1.5 1.4 0.9l8.3-9c0.3-0.4 0.3-1 0-1.4l-8.3-9.1z"></path></svg>

<?xml version="1.0" encoding="utf-8"?>
<!-- Generator: Adobe Illustrator 18.1.1, SVG Export Plug-In . SVG Version: 6.00 Build 0)  -->
<svg version="1.1" id="Layer_1" xmlns="http://www.w3.org/2000/svg" xmlns:xlink="http://www.w3.org/1999/xlink" x="0px" y="0px"
	 width="52px" height="52px" viewBox="0 0 52 52" enable-background="new 0 0 52 52" xml:space="preserve">
<path fill="#FFFFFF" d="M52,11.5c0-0.8-0.7-1.5-1.5-1.5h-17c-0.8,0-1.5,0.7-1.5,1.5v3c0,0.8,0.7,1.5,1.5,1.5h17
	c0.8,0,1.5-0.7,1.5-1.5V11.5z"/>
<path fill="#FFFFFF" d="M48,35.5c0-0.8-0.7-1.5-1.5-1.5h-13c-0.8,0-1.5,0.7-1.5,1.5v3c0,0.8,0.7,1.5,1.5,1.5h13
	c0.8,0,1.5-0.7,1.5-1.5V35.5z"/>
<path fill="#FFFFFF" d="M52,23.5c0-0.8-0.7-1.5-1.5-1.5h-17c-0.8,0-1.5,0.7-1.5,1.5v3c0,0.8,0.7,1.5,1.5,1.5h17
	c0.8,0,1.5-0.7,1.5-1.5V23.5z"/>
<path fill="#FFFFFF" d="M28,5.5C28,4.7,27.3,4,26.5,4h-3C22.7,4,22,4.7,22,5.5v41c0,0.8,0.7,1.5,1.5,1.5h3c0.8,0,1.5-0.7,1.5-1.5
	V5.5z"/>
<path fill="#FFFFFF" d="M9.4,15.3C8.8,14.7,8,15.2,8,16.2V22H1.5C0.7,22,0,22.7,0,23.5v3C0,27.3,0.7,28,1.5,28H8v5.9
	c0,1,0.9,1.5,1.4,0.9l8.3-9c0.3-0.4,0.3-1,0-1.4L9.4,15.3z"/>
</svg>
